Gruvbox-Material-Icons/panel/16/phone-battery-empty.svg

<svg xmlns="http://www.w3.org/2000/svg" width="16" height="16" version="1.1">
    <defs>
        <style id="current-color-scheme" type="text/css">
            .ColorScheme-Text {
                color: #ebdbb2;
            }

            .ColorScheme-Highlight {
                color: #fb5924;
            }
        </style>
    </defs>
    <path style="opacity:0.3;fill:currentColor" class="ColorScheme-Highlight"
        d="m 2.5,1.99965 c -0.277,0 -0.5,0.223 -0.5,0.5 l 0,0.5 -2,-0.002 0,-3e-4 L 0,13.5 C 0,13.777 0.223,14 0.5,14 l 6,0 C 6.777,14 7,13.777 7,13.5 l 0,-10.50165 -0.5,0.002 -1.5,0 0,-0.5 c 0,-0.277 -0.223,-0.5 -0.5,-0.5 z" />
    <path style="fill:currentColor" class="ColorScheme-Text"
        d="M 10 2 C 9.446 2 9 2.446 9 3 L 9 13 C 9 13.554 9.446 14 10 14 L 15 14 C 15.554 14 16 13.554 16 13 L 16 3 C 16 2.446 15.554 2 15 2 L 10 2 z M 10.714844 3 L 14.285156 3 C 14.680871 3 15 3.3345 15 3.75 L 15 11.25 C 15 11.6655 14.680871 12 14.285156 12 L 10.714844 12 C 10.319129 12 10 11.6655 10 11.25 L 10 3.75 C 10 3.3345 10.319129 3 10.714844 3 z" />
</svg>

<svg width="16" height="16" version="1.1" xmlns="http://www.w3.org/2000/svg">
  <defs>
    <style id="current-color-scheme" type="text/css">.ColorScheme-Text { color:#ebdbb2; } .ColorScheme-Highlight { color:#458588; } .ColorScheme-NeutralText { color:#fe8019; } .ColorScheme-PositiveText { color:#689d6a; } .ColorScheme-NegativeText { color:#fb4934; }</style>
  </defs>
  <path class="ColorScheme-NegativeText" d="m2.5 2c-0.277 0-0.5 0.223-0.5 0.5v0.5l-2-2e-3v10.5c0 0.277 0.223 0.5 0.5 0.5h6c0.277 0 0.5-0.223 0.5-0.5v-10.5l-2 2e-3v-0.5c0-0.277-0.223-0.5-0.5-0.5z" fill="currentColor" opacity=".3"/>
  <path class="ColorScheme-Text" d="m10 2c-0.554 0-1 0.446-1 1v10c0 0.554 0.446 1 1 1h5c0.554 0 1-0.446 1-1v-10c0-0.554-0.446-1-1-1zm0 1h5v8h-5zm2 9h1c0.6544 0 0.6544 1 0 1h-1c-0.6569 0-0.6511-1 0-1z" fill="currentColor"/>
</svg>
